app/images/mm-info-icon.svg

<svg enable-background="new 0 0 10 10" viewBox="0 0 10 10" xmlns="http://www.w3.org/2000/svg"><path d="m5 0c-2.8 0-5 2.2-5 5s2.2 5 5 5 5-2.2 5-5-2.2-5-5-5zm0 2c.4 0 .7.3.7.7s-.3.7-.7.7-.7-.2-.7-.6.3-.8.7-.8zm.7 6h-1.4v-3.7h1.5v3.7z" fill="#b8b8b8"/></svg>

<?xml version="1.0" encoding="utf-8"?>
<!-- Generator: Adobe Illustrator 21.1.0, SVG Export Plug-In . SVG Version: 6.00 Build 0)  -->
<!DOCTYPE svg PUBLIC "-//W3C//DTD SVG 1.1//EN" "http://www.w3.org/Graphics/SVG/1.1/DTD/svg11.dtd">
<svg version="1.1" id="Layer_1" xmlns="http://www.w3.org/2000/svg" xmlns:xlink="http://www.w3.org/1999/xlink" x="0px" y="0px"
	 viewBox="0 0 10 10" style="enable-background:new 0 0 10 10;" xml:space="preserve">
<style type="text/css">
	.st0{fill:#B8B8B8;}
</style>
<path class="st0" d="M5,0C2.2,0,0,2.2,0,5s2.2,5,5,5s5-2.2,5-5S7.8,0,5,0z M5,2c0.4,0,0.7,0.3,0.7,0.7c0,0.4-0.3,0.7-0.7,0.7
	S4.3,3.2,4.3,2.8C4.3,2.4,4.6,2,5,2z M5.7,8H4.3V4.3h1.5V8z"/>
</svg>
